X:1
T:Hixson, 76.86 D
T:Hixson, 76.86 D
T:J. S., 1866
T:Public Domain Courtesy of the Cyber Hymnal™
C:J. S., 1866
Z:Public Domain
Z:Courtesy of the Cyber Hymnal™
%%score ( 1 2 ) 3
L:1/8
Q:1/4=105
M:4/4
K:G
V:1 treble 
V:2 treble 
V:3 bass 
V:1
 [Bd]2 | [GB]2 [Bd]2 [GB]2 ([Ac][Bd]) | [ce]4 [Bd]2 c2 | [DB]2 ([Ec][CA]) [B,G]2 [CF]2 | %4
 [B,G]6 [Bd]2 | [GB]2 [Bd]2 ([GB]2 [Ac][Bd]) | [ce]3 [ce] [Bd]2 [GB]2 | [FA]2 [Fd]2 (d^c) (Bc) | %8
 [Fd]6 [Bd]2 | [Ac]3 [Bd] [Ac]2 [GB]2 | ([FA][EG][FA][GB]) [FA]2 [FA]2 | [GB]2 [ce]2 [Bd]2 [GB]2 | %12
 [FA]6 (BA) | G2 [DB]2 [FA]2 ([FB][Ec]) | (de) (dc) [GB]2 d2 | [Ee]2 (dc) B2 ([DB][B,A]) | %16
 [B,G]6 |] %17
V:2
 x2 | x8 | x6 (AD) | x8 | x8 | x8 | x8 | x4 G2 G2 | x8 | x8 | x8 | x8 | x6 F2 | G2 x6 | %14
 [DG]2 F2 x (G=F) x | x2 A2 (GD) x2 | x6 |] %17
V:3
 G,2 | G,4 G,4 | G,4 G,2 F,2 | G,2 C,2 D,4 | [G,,G,]6 G,2 | G,4 G,4 | C,2 E,2 G,2 G,2 | %7
 A,4 [A,,A,]4 | D,6 z2 | z8 | z8 | z8 | z6 (ED) | B,2 G,2 D,2 (D,C,) | B,,2 D,2 G,2 B,,2 | %15
 C,2 C,2 D,2 D,2 | G,6 |] %17

